poi/svg/1905.svg

<?xml version="1.0" encoding="UTF-8" standalone="no"?>
<svg
   xmlns:dc="http://purl.org/dc/elements/1.1/"
   xmlns:cc="http://creativecommons.org/ns#"
   xmlns:rdf="http://www.w3.org/1999/02/22-rdf-syntax-ns#"
   xmlns:svg="http://www.w3.org/2000/svg"
   xmlns="http://www.w3.org/2000/svg"
   xmlns:sodipodi="http://sodipodi.sourceforge.net/DTD/sodipodi-0.dtd"
   xmlns:inkscape="http://www.inkscape.org/namespaces/inkscape"
   inkscape:version="1.0 (4035a4fb49, 2020-05-01)"
   sodipodi:docname="1905.svg"
   id="svg20"
   version="1.2"
   viewBox="0 0 42.519639 42.519639"
   height="14.999999mm"
   width="14.999999mm">
  <metadata
     id="metadata24">
    <rdf:RDF>
      <cc:Work
         rdf:about="">
        <dc:format>image/svg+xml</dc:format>
        <dc:type
           rdf:resource="http://purl.org/dc/dcmitype/StillImage" />
        <dc:title>Qt SVG Document</dc:title>
      </cc:Work>
    </rdf:RDF>
  </metadata>
  <sodipodi:namedview
     inkscape:current-layer="svg20"
     inkscape:window-maximized="0"
     inkscape:window-y="0"
     inkscape:window-x="0"
     inkscape:cy="28.346482"
     inkscape:cx="28.346482"
     inkscape:zoom="5.8410537"
     showgrid="false"
     id="namedview22"
     inkscape:window-height="480"
     inkscape:window-width="1034"
     inkscape:pageshadow="2"
     inkscape:pageopacity="0"
     guidetolerance="10"
     gridtolerance="10"
     objecttolerance="10"
     borderopacity="1"
     bordercolor="#666666"
     pagecolor="#ffffff" />
  <title
     id="title2">Qt SVG Document</title>
  <desc
     id="desc4">Generated with Qt</desc>
  <defs
     id="defs6" />
  <g
     transform="translate(5.25984,5.25984)"
     id="g18"
     stroke-linejoin="bevel"
     stroke-linecap="square"
     fill-rule="evenodd"
     stroke-width="1"
     stroke="#000000"
     fill="none">
    <g
       id="g10"
       font-style="normal"
       font-weight="400"
       font-size="7.8px"
       font-family="'MS Shell Dlg 2'"
       stroke="none"
       fill-opacity="1"
       fill="#a61215">
      <path
         id="path8"
         d="M 37.2598,16 C 37.2598,27.7415 27.7415,37.2598 16,37.2598 4.25851,37.2598 -5.25984,27.7415 -5.25984,16 -5.25984,4.25851 4.25851,-5.25984 16,-5.25984 27.7415,-5.25984 37.2598,4.25851 37.2598,16"
         fill-rule="evenodd"
         vector-effect="non-scaling-stroke" />
    </g>
    <g
       id="g14"
       font-style="normal"
       font-weight="400"
       font-size="7.8px"
       font-family="'MS Shell Dlg 2'"
       transform="translate(16.5669,12.0315)"
       stroke="none"
       fill-opacity="0.94902"
       fill="#ffffff">
      <path
         id="path12"
         d="m -11.4307,3.71094 v -6.08887 l -1.2387,0.25195 -0.6509,-0.81884 7.87352,-4.76612 2.7085,1.76367 V -8.4458 h 0.94482 v 3.04443 l 4.07325,2.45655 -0.5879,0.81884 -1.301753,-0.25195 v 2.3515628 L -4.54395,2.99707 h -3.65332 v 0.71387 h -3.23343 m 6.88675,-6.08887 h -1.93164 v 4.2832 h 1.93164 v -4.2832 m 1.19678,2.519532 h 2.05762 V -2.04199 H -3.34717 V 0.141602 M -6.83252,-4.58252 h 2.62451 l -1.23877,-1.36475 -1.38574,1.36475 m -2.91846,4.724122 h 2.09961 V -2.04199 H -9.75098 V 0.141602 M 13.6387,6.86035 12.7358,7.93115 11.0142,7.59521 V 16.1826 H 6.41602 v -0.6299 h -7.57959 v 0.6299 H -5.67773 V 7.59521 L -7.4834,7.93115 -8.30225,6.86035 2.67871,0.141602 6.58398,2.55615 V -0.845215 H 7.78076 V 3.29102 L 13.6387,6.86035 M 2.67871,2.55615 C 2.10482,2.55615 1.6394,2.74862 1.28247,3.13354 0.925537,3.51847 0.74707,3.95589 0.74707,4.4458 H 4.48438 C 4.48438,3.95589 4.30591,3.51847 3.94897,3.13354 3.59204,2.74862 3.16862,2.55615 2.67871,2.55615 M 1.20898,7.59521 V 13.7051 H 4.04346 V 7.59521 H 1.20898 M -0.428711,8.09912 H -3.26318 v 4.30418 h 2.834469 V 8.09912 M 4.8623,14.6079 H 0.390137 v 0.4619 H 4.8623 V 14.6079 M 8.59961,8.09912 H 5.68115 V 12.4033 H 8.59961 V 8.09912"
         fill-rule="evenodd"
         vector-effect="none" />
    </g>
    <g
       id="g16"
       font-style="normal"
       font-weight="400"
       font-size="7.8px"
       font-family="'MS Shell Dlg 2'"
       stroke="none"
       fill-opacity="1"
       fill="#a61215" />
  </g>
</svg>

<?xml version="1.0" encoding="UTF-8" standalone="no"?>
<svg width="11.2889mm" height="11.2889mm"
 viewBox="0 0 32 32"
 xmlns="http://www.w3.org/2000/svg" xmlns:xlink="http://www.w3.org/1999/xlink"  version="1.2" baseProfile="tiny">
<title>Qt SVG Document</title>
<desc>Generated with Qt</desc>
<defs>
</defs>
<g fill="none" stroke="black" stroke-width="1" fill-rule="evenodd" stroke-linecap="square" stroke-linejoin="bevel" >

<g fill="#a61215" fill-opacity="1" stroke="none" transform="matrix(1,0,0,1,0,0)"
font-family="MS Shell Dlg 2" font-size="7.8" font-weight="400" font-style="normal" 
>
<path vector-effect="non-scaling-stroke" fill-rule="evenodd" d="M37.2598,16 C37.2598,27.7415 27.7415,37.2598 16,37.2598 C4.25851,37.2598 -5.25984,27.7415 -5.25984,16 C-5.25984,4.25851 4.25851,-5.25984 16,-5.25984 C27.7415,-5.25984 37.2598,4.25851 37.2598,16 "/>
</g>

<g fill="#ffffff" fill-opacity="0.94902" stroke="none" transform="matrix(1,0,0,1,16.5669,12.0315)"
font-family="MS Shell Dlg 2" font-size="7.8" font-weight="400" font-style="normal" 
>
<path vector-effect="none" fill-rule="evenodd" d="M-11.4307,3.71094 L-11.4307,-2.37793 L-12.6694,-2.12598 L-13.3203,-2.94482 L-5.44678,-7.71094 L-2.73828,-5.94727 L-2.73828,-8.4458 L-1.79346,-8.4458 L-1.79346,-5.40137 L2.27979,-2.94482 L1.69189,-2.12598 L0.390137,-2.37793 L0.390137,-0.0263672 L-4.54395,2.99707 L-8.19727,2.99707 L-8.19727,3.71094 L-11.4307,3.71094 M-4.54395,-2.37793 L-6.47559,-2.37793 L-6.47559,1.90527 L-4.54395,1.90527 L-4.54395,-2.37793 M-3.34717,0.141602 L-1.28955,0.141602 L-1.28955,-2.04199 L-3.34717,-2.04199 L-3.34717,0.141602 M-6.83252,-4.58252 L-4.20801,-4.58252 L-5.44678,-5.94727 L-6.83252,-4.58252 M-9.75098,0.141602 L-7.65137,0.141602 L-7.65137,-2.04199 L-9.75098,-2.04199 L-9.75098,0.141602 M13.6387,6.86035 L12.7358,7.93115 L11.0142,7.59521 L11.0142,16.1826 L6.41602,16.1826 L6.41602,15.5527 L-1.16357,15.5527 L-1.16357,16.1826 L-5.67773,16.1826 L-5.67773,7.59521 L-7.4834,7.93115 L-8.30225,6.86035 L2.67871,0.141602 L6.58398,2.55615 L6.58398,-0.845215 L7.78076,-0.845215 L7.78076,3.29102 L13.6387,6.86035 M2.67871,2.55615 C2.10482,2.55615 1.6394,2.74862 1.28247,3.13354 C0.925537,3.51847 0.74707,3.95589 0.74707,4.4458 L4.48438,4.4458 C4.48438,3.95589 4.30591,3.51847 3.94897,3.13354 C3.59204,2.74862 3.16862,2.55615 2.67871,2.55615 M1.20898,7.59521 L1.20898,13.7051 L4.04346,13.7051 L4.04346,7.59521 L1.20898,7.59521 M-0.428711,8.09912 L-3.26318,8.09912 L-3.26318,12.4033 L-0.428711,12.4033 L-0.428711,8.09912 M4.8623,14.6079 L0.390137,14.6079 L0.390137,15.0698 L4.8623,15.0698 L4.8623,14.6079 M8.59961,8.09912 L5.68115,8.09912 L5.68115,12.4033 L8.59961,12.4033 L8.59961,8.09912"/>
</g>

<g fill="#a61215" fill-opacity="1" stroke="none" transform="matrix(1,0,0,1,0,0)"
font-family="MS Shell Dlg 2" font-size="7.8" font-weight="400" font-style="normal" 
>
</g>
</g>
</svg>
